src/assets/icons/profile-icon.svg

<svg width="23" height="23" viewBox="0 0 23 23" fill="none" xmlns="http://www.w3.org/2000/svg">
<path d="M11.4941 6C13.424 6 14.9891 7.56436 14.9893 9.49414C14.9893 11.424 13.424 12.9893 11.4941 12.9893C9.56436 12.9891 8 11.424 8 9.49414C8.00014 7.56444 9.56444 6.00014 11.4941 6Z" fill="#FF8EB1"/>
<path fill-rule="evenodd" clip-rule="evenodd" d="M11.5 0C17.8513 0 23 5.14873 23 11.5C23 15.5512 20.9029 19.1097 17.7373 21.1582C17.7146 21.1729 17.6918 21.1876 17.6689 21.2021C17.541 21.2837 17.4116 21.3629 17.2803 21.4395C17.2358 21.4654 17.1913 21.4912 17.1465 21.5166C17.0347 21.5798 16.9217 21.6407 16.8076 21.7002C16.7373 21.7369 16.6668 21.7733 16.5957 21.8086C16.5298 21.8412 16.464 21.8739 16.3975 21.9053C16.2886 21.9567 16.179 22.0067 16.0684 22.0547C15.9995 22.0846 15.9299 22.1131 15.8604 22.1416C15.7425 22.19 15.6237 22.2367 15.5039 22.2812C15.4582 22.2982 15.4122 22.3146 15.3662 22.3311C15.2569 22.3701 15.1469 22.4075 15.0361 22.4434C14.9622 22.4672 14.888 22.4903 14.8135 22.5127C14.6815 22.5524 14.5489 22.5909 14.415 22.626C14.3959 22.631 14.3766 22.6357 14.3574 22.6406C14.2028 22.6802 14.0467 22.7158 13.8896 22.749C13.8486 22.7577 13.8078 22.7672 13.7666 22.7754C13.6115 22.8065 13.4552 22.8337 13.2979 22.8584C13.2699 22.8628 13.2419 22.8669 13.2139 22.8711C13.0412 22.8969 12.8675 22.9194 12.6924 22.9375C12.6787 22.9389 12.665 22.94 12.6514 22.9414C12.4799 22.9585 12.3074 22.972 12.1338 22.9814C12.0919 22.9837 12.0499 22.9855 12.0078 22.9873C11.8394 22.9946 11.6702 23 11.5 23C11.3292 23 11.1593 22.9947 10.9902 22.9873C10.9488 22.9855 10.9075 22.9837 10.8662 22.9814C10.6923 22.972 10.5194 22.9585 10.3477 22.9414C10.334 22.94 10.3203 22.9389 10.3066 22.9375C10.1316 22.9194 9.9578 22.8969 9.78516 22.8711C9.75713 22.8669 9.72913 22.8628 9.70117 22.8584C9.54183 22.8333 9.38365 22.805 9.22656 22.7734C9.19035 22.7662 9.15425 22.7586 9.11816 22.751C8.95585 22.7167 8.79447 22.6807 8.63477 22.6396C8.62298 22.6366 8.61138 22.6329 8.59961 22.6299C8.45753 22.5929 8.31664 22.553 8.17676 22.5107C8.11172 22.4911 8.04697 22.4709 7.98242 22.4502C7.86233 22.4116 7.74333 22.3705 7.625 22.3281C7.58493 22.3138 7.54474 22.2999 7.50488 22.2852C7.37776 22.238 7.25191 22.1882 7.12695 22.1367C7.06199 22.11 6.99698 22.0836 6.93262 22.0557C6.81672 22.0054 6.70177 21.9534 6.58789 21.8994C6.53218 21.8731 6.47709 21.8456 6.42188 21.8184C6.32674 21.7714 6.2323 21.7233 6.13867 21.6738C6.06054 21.6326 5.98331 21.5899 5.90625 21.5469C5.81604 21.4965 5.72639 21.4453 5.6377 21.3926C5.55256 21.342 5.46847 21.29 5.38477 21.2373C5.33332 21.2049 5.28233 21.1719 5.23145 21.1387C5.09741 21.0513 4.96505 20.9619 4.83496 20.8691C4.81253 20.8531 4.78989 20.8374 4.76758 20.8213C4.36839 20.5325 3.98918 20.2184 3.63086 19.8818C3.61055 19.8628 3.59048 19.8434 3.57031 19.8242C1.37218 17.7296 0 14.776 0 11.5C0 5.14873 5.14873 0 11.5 0ZM11.5 2C6.25329 2 2 6.25329 2 11.5C2 13.7991 2.81666 15.9075 4.17578 17.5508C6.06746 15.9722 8.65133 15 11.5 15C14.3484 15 16.9318 15.9723 18.8232 17.5508C20.1826 15.9074 21 13.7993 21 11.5C21 6.25329 16.7467 2 11.5 2Z" fill="#FF8EB1"/>
</svg>

<svg xmlns="http://www.w3.org/2000/svg" width="23" height="23" fill="none" stroke="currentColor" viewBox="0 0 23 23"><path fill="currentColor" d="M11.494 6a3.495 3.495 0 1 1 0 6.99 3.495 3.495 0 0 1 0-6.99"/><path fill="currentColor" fill-rule="evenodd" d="M11.5 0C17.851 0 23 5.149 23 11.5a11.49 11.49 0 0 1-6.192 10.2l-.212.109-.198.096q-.164.078-.33.15l-.208.087a11 11 0 0 1-.356.14l-.138.05a12 12 0 0 1-.951.294l-.058.015q-.231.06-.467.108l-.123.026q-.233.047-.47.083l-.083.013q-.26.039-.522.067l-.04.003a11.5 11.5 0 0 1-2.304 0l-.041-.003q-.263-.028-.522-.067l-.084-.013a11 11 0 0 1-1.066-.218l-.035-.01a11 11 0 0 1-.975-.302l-.12-.043a12 12 0 0 1-.378-.148l-.194-.081a11 11 0 0 1-.345-.157l-.166-.08a11.6 11.6 0 0 1-1.587-.95l-.067-.048a12 12 0 0 1-1.137-.94l-.06-.057A11.46 11.46 0 0 1 0 11.5C0 5.149 5.149 0 11.5 0m0 2A9.5 9.5 0 0 0 2 11.5c0 2.3.817 4.408 2.176 6.05C6.067 15.973 8.65 15 11.5 15c2.848 0 5.432.972 7.323 2.55A9.5 9.5 0 0 0 11.5 2" clip-rule="evenodd"/></svg>
